!!!OTL: Sixt as net, da kuemmt er, klaana Schrittla nimmt er
!!!ARE: Europa, Mitteleuropa, Deutschland, Ober - Franken, Kirchahorn
!!!SCT: V0003C
!!!YEM: Copyright 1995, estate of Helmut Schaffrath.
**kern
*ICvox
*Ivox
*M2/4
*k[]
*C:
{8g
8g
8g
8f
=1
4e
4e}
=2
{8c
8c
8a
8g
=3
4g
4f}
=4
{8f
8f
8f
8e
=5
8d
8d
4d}
=6
{8B
8d
8g
8d
=7
8f
8e
4e}
==
!!!AGN: Geselligkeits - Lied, Scherz
!!!ONB: ESAC (Essen Associative Code) Database: VARIANT
!!!AMT: simple duple
!!!AIN: vox
!!!EED: Helmut Schaffrath
!!!EEV: 1.0
*-
